X:80
T: Graf und Nonne (Die Nonne)
N: Q0155Q
O: Mitteleuropa, Deutschland (BRD) , Nordrhein - Westfalen, Bonn
N: Anhaengsel an der dritten Zeile.
R: Ballade, Standesunterschied, vergebliche Werbung, Liebe, Klage
M: 2/4
L: 1/16
K: G
G2 | B2B2B2BA | G4D2
D2 | G2G2BAGA | B4z2
d2 | g2fed2BG | e4d2z2 | c4B2
d2 | e2dcB2A2 | G4z2

